logos/sponsors/fabworks.svg

<svg width="158" height="25" viewBox="0 0 158 25" fill="none" xmlns="http://www.w3.org/2000/svg">

    <path d="M4.576 24C4.36267 24 4.17067 23.9253 4 23.776C3.85067 23.6267 3.776 23.4347 3.776 23.2V11.552H1.344C1.10933 11.552 0.917333 11.4773 0.768 11.328C0.618667 11.1787 0.544 10.9867 0.544 10.752V8.16C0.544 7.92533 0.618667 7.73333 0.768 7.584C0.917333 7.43467 1.10933 7.36 1.344 7.36H3.776V6.336C3.776 4.88533 4.05333 3.72267 4.608 2.848C5.184 1.952 5.99467 1.312 7.04 0.927999C8.08533 0.522666 9.33333 0.32 10.784 0.32H13.28C13.4933 0.32 13.6747 0.394666 13.824 0.543999C13.9947 0.693333 14.08 0.885333 14.08 1.12V3.712C14.08 3.94667 13.9947 4.13867 13.824 4.288C13.6747 4.43733 13.4933 4.512 13.28 4.512H11.04C10.3147 4.512 9.80267 4.68267 9.504 5.024C9.22667 5.36533 9.088 5.856 9.088 6.496V7.36H12.96C13.1733 7.36 13.3547 7.43467 13.504 7.584C13.6747 7.73333 13.76 7.92533 13.76 8.16V10.752C13.76 10.9867 13.6747 11.1787 13.504 11.328C13.3547 11.4773 13.1733 11.552 12.96 11.552H9.088V23.2C9.088 23.4347 9.01333 23.6267 8.864 23.776C8.71467 23.9253 8.52267 24 8.288 24H4.576ZM20.7863 24.32C19.6343 24.32 18.5996 24.1067 17.6823 23.68C16.7863 23.232 16.0716 22.6347 15.5383 21.888C15.0049 21.1413 14.7383 20.2987 14.7383 19.36C14.7383 17.8453 15.3569 16.6507 16.5943 15.776C17.8316 14.88 19.4743 14.272 21.5223 13.952L25.5223 13.344V12.896C25.5223 12.128 25.3623 11.5413 25.0423 11.136C24.7223 10.7307 24.1356 10.528 23.2823 10.528C22.6849 10.528 22.1943 10.6453 21.8103 10.88C21.4476 11.1147 21.1596 11.4347 20.9463 11.84C20.7543 12.1173 20.4876 12.256 20.1463 12.256H16.5623C16.3276 12.256 16.1463 12.192 16.0182 12.064C15.8903 11.9147 15.8369 11.744 15.8583 11.552C15.8583 11.168 15.9969 10.7307 16.2743 10.24C16.5729 9.728 17.0209 9.22667 17.6183 8.736C18.2156 8.24533 18.9836 7.84 19.9223 7.52C20.8609 7.2 21.9916 7.04 23.3142 7.04C24.7009 7.04 25.8849 7.2 26.8663 7.52C27.8476 7.84 28.6369 8.288 29.2343 8.864C29.8529 9.44 30.3116 10.1227 30.6103 10.912C30.9089 11.68 31.0583 12.5333 31.0583 13.472V23.2C31.0583 23.4347 30.9729 23.6267 30.8022 23.776C30.6529 23.9253 30.4716 24 30.2583 24H26.5463C26.3116 24 26.1196 23.9253 25.9703 23.776C25.8209 23.6267 25.7463 23.4347 25.7463 23.2V22.08C25.4689 22.4853 25.0956 22.8587 24.6263 23.2C24.1569 23.5413 23.6023 23.808 22.9623 24C22.3436 24.2133 21.6183 24.32 20.7863 24.32ZM22.2903 20.672C22.9089 20.672 23.4636 20.544 23.9543 20.288C24.4663 20.0107 24.8609 19.5947 25.1383 19.04C25.4369 18.464 25.5863 17.7493 25.5863 16.896V16.448L22.8663 16.928C21.8636 17.0987 21.1276 17.3653 20.6583 17.728C20.2103 18.0693 19.9863 18.4747 19.9863 18.944C19.9863 19.3067 20.0929 19.616 20.3063 19.872C20.5196 20.128 20.7969 20.3307 21.1383 20.48C21.4796 20.608 21.8636 20.672 22.2903 20.672ZM44.8453 24.32C43.6506 24.32 42.6479 24.1173 41.8373 23.712C41.0479 23.3067 40.3973 22.7947 39.8853 22.176V23.2C39.8853 23.4347 39.7999 23.6267 39.6293 23.776C39.4799 23.9253 39.2986 24 39.0853 24H35.4693C35.2346 24 35.0426 23.9253 34.8932 23.776C34.7439 23.6267 34.6693 23.4347 34.6693 23.2V2.08C34.6693 1.84533 34.7439 1.65333 34.8932 1.504C35.0426 1.35467 35.2346 1.28 35.4693 1.28H39.3733C39.6079 1.28 39.7999 1.35467 39.9493 1.504C40.0986 1.65333 40.1733 1.84533 40.1733 2.08V8.928C40.6853 8.37333 41.3253 7.92533 42.0933 7.584C42.8826 7.22133 43.7999 7.04 44.8453 7.04C45.9119 7.04 46.8506 7.22133 47.6613 7.584C48.4933 7.92533 49.1973 8.42667 49.7733 9.088C50.3493 9.74933 50.7973 10.5387 51.1173 11.456C51.4373 12.3733 51.6186 13.408 51.6613 14.56C51.6826 14.9653 51.6933 15.3387 51.6933 15.68C51.6933 16 51.6826 16.3733 51.6613 16.8C51.6186 17.9947 51.4266 19.0613 51.0853 20C50.7653 20.9173 50.3173 21.7067 49.7413 22.368C49.1653 23.008 48.4719 23.4987 47.6613 23.84C46.8506 24.16 45.9119 24.32 44.8453 24.32ZM43.1173 20.032C43.8426 20.032 44.4079 19.8827 44.8133 19.584C45.2186 19.2853 45.5066 18.88 45.6773 18.368C45.8693 17.856 45.9866 17.2907 46.0293 16.672C46.0719 16.0107 46.0719 15.3493 46.0293 14.688C45.9866 14.0693 45.8693 13.504 45.6773 12.992C45.5066 12.48 45.2186 12.0747 44.8133 11.776C44.4079 11.4773 43.8426 11.328 43.1173 11.328C42.4559 11.328 41.9119 11.4773 41.4853 11.776C41.0586 12.0533 40.7386 12.4267 40.5253 12.896C40.3119 13.344 40.1946 13.8347 40.1733 14.368C40.1519 14.7733 40.1413 15.168 40.1413 15.552C40.1413 15.936 40.1519 16.3413 40.1733 16.768C40.1946 17.344 40.3013 17.8773 40.4933 18.368C40.6853 18.8587 40.9946 19.264 41.4213 19.584C41.8479 19.8827 42.4133 20.032 43.1173 20.032ZM59.028 24C58.708 24 58.4733 23.9253 58.324 23.776C58.1747 23.6267 58.0573 23.4347 57.972 23.2L53.364 8.384C53.3213 8.27733 53.3 8.17067 53.3 8.064C53.3 7.872 53.3747 7.712 53.524 7.584C53.6733 7.43467 53.844 7.36 54.036 7.36H57.332C57.6093 7.36 57.8227 7.43467 57.972 7.584C58.1427 7.73333 58.2493 7.88267 58.292 8.032L60.98 17.184L63.86 8.064C63.9027 7.91467 63.9987 7.76533 64.148 7.616C64.3187 7.44533 64.5533 7.36 64.852 7.36H66.964C67.2627 7.36 67.4867 7.44533 67.636 7.616C67.8067 7.76533 67.9133 7.91467 67.956 8.064L70.836 17.184L73.524 8.032C73.5667 7.88267 73.6627 7.73333 73.812 7.584C73.9827 7.43467 74.2067 7.36 74.484 7.36H77.78C77.972 7.36 78.132 7.43467 78.26 7.584C78.4093 7.712 78.484 7.872 78.484 8.064C78.484 8.17067 78.4733 8.27733 78.452 8.384L73.844 23.2C73.78 23.4347 73.6627 23.6267 73.492 23.776C73.3427 23.9253 73.108 24 72.788 24H69.908C69.6093 24 69.3747 23.9253 69.204 23.776C69.0333 23.6267 68.916 23.4347 68.852 23.2L65.908 14.432L62.964 23.2C62.9 23.4347 62.7827 23.6267 62.612 23.776C62.4413 23.9253 62.2067 24 61.908 24H59.028ZM88.5725 24.32C86.7805 24.32 85.2658 24.032 84.0285 23.456C82.8125 22.88 81.8738 22.0587 81.2125 20.992C80.5725 19.904 80.2098 18.6133 80.1245 17.12C80.1032 16.6933 80.0925 16.2133 80.0925 15.68C80.0925 15.1253 80.1032 14.6453 80.1245 14.24C80.2098 12.7253 80.5938 11.4347 81.2765 10.368C81.9592 9.30133 82.9085 8.48 84.1245 7.904C85.3618 7.328 86.8445 7.04 88.5725 7.04C90.3218 7.04 91.8045 7.328 93.0205 7.904C94.2578 8.48 95.2178 9.30133 95.9005 10.368C96.5832 11.4347 96.9672 12.7253 97.0525 14.24C97.0738 14.6453 97.0845 15.1253 97.0845 15.68C97.0845 16.2133 97.0738 16.6933 97.0525 17.12C96.9672 18.6133 96.5938 19.904 95.9325 20.992C95.2925 22.0587 94.3538 22.88 93.1165 23.456C91.9005 24.032 90.3858 24.32 88.5725 24.32ZM88.5725 20.416C89.5325 20.416 90.2258 20.128 90.6525 19.552C91.1005 18.976 91.3565 18.112 91.4205 16.96C91.4418 16.64 91.4525 16.2133 91.4525 15.68C91.4525 15.1467 91.4418 14.72 91.4205 14.4C91.3565 13.2693 91.1005 12.416 90.6525 11.84C90.2258 11.2427 89.5325 10.944 88.5725 10.944C87.6338 10.944 86.9405 11.2427 86.4925 11.84C86.0445 12.416 85.7992 13.2693 85.7565 14.4C85.7352 14.72 85.7245 15.1467 85.7245 15.68C85.7245 16.2133 85.7352 16.64 85.7565 16.96C85.7992 18.112 86.0445 18.976 86.4925 19.552C86.9405 20.128 87.6338 20.416 88.5725 20.416ZM101.032 24C100.797 24 100.605 23.9253 100.456 23.776C100.306 23.6267 100.232 23.4347 100.232 23.2V8.16C100.232 7.94667 100.306 7.76533 100.456 7.616C100.605 7.44533 100.797 7.36 101.032 7.36H104.712C104.946 7.36 105.138 7.44533 105.288 7.616C105.437 7.76533 105.512 7.94667 105.512 8.16V9.44C106.088 8.77867 106.77 8.26667 107.56 7.904C108.37 7.54133 109.277 7.36 110.28 7.36H111.688C111.901 7.36 112.082 7.43467 112.232 7.584C112.402 7.73333 112.488 7.92533 112.488 8.16V11.456C112.488 11.6693 112.402 11.8613 112.232 12.032C112.082 12.1813 111.901 12.256 111.688 12.256H108.584C107.709 12.256 107.026 12.5013 106.536 12.992C106.066 13.4613 105.832 14.1333 105.832 15.008V23.2C105.832 23.4347 105.746 23.6267 105.576 23.776C105.426 23.9253 105.234 24 105 24H101.032ZM115.563 24C115.328 24 115.136 23.9253 114.987 23.776C114.838 23.6267 114.763 23.4347 114.763 23.2V2.08C114.763 1.84533 114.838 1.65333 114.987 1.504C115.136 1.35467 115.328 1.28 115.563 1.28H119.275C119.488 1.28 119.67 1.35467 119.819 1.504C119.99 1.65333 120.075 1.84533 120.075 2.08V12.8L124.523 7.904C124.651 7.75467 124.79 7.62667 124.939 7.52C125.088 7.41333 125.302 7.36 125.579 7.36H129.867C130.059 7.36 130.219 7.43467 130.347 7.584C130.496 7.712 130.571 7.872 130.571 8.064C130.571 8.14933 130.55 8.24533 130.507 8.352C130.464 8.45867 130.4 8.544 130.315 8.608L124.555 14.816L131.115 22.784C131.286 22.9547 131.371 23.1253 131.371 23.296C131.371 23.488 131.296 23.6587 131.147 23.808C131.019 23.936 130.848 24 130.635 24H126.251C125.931 24 125.696 23.9467 125.547 23.84C125.398 23.712 125.259 23.584 125.131 23.456L120.075 17.376V23.2C120.075 23.4347 119.99 23.6267 119.819 23.776C119.67 23.9253 119.488 24 119.275 24H115.563ZM139.955 24.32C138.568 24.32 137.384 24.1707 136.403 23.872C135.443 23.552 134.653 23.168 134.035 22.72C133.437 22.272 132.989 21.8133 132.691 21.344C132.392 20.8533 132.232 20.4373 132.211 20.096C132.189 19.8613 132.264 19.6693 132.435 19.52C132.605 19.3493 132.787 19.264 132.979 19.264H136.627C136.691 19.264 136.744 19.2747 136.787 19.296C136.829 19.3173 136.893 19.36 136.979 19.424C137.256 19.5733 137.533 19.7653 137.811 20C138.088 20.2133 138.408 20.4053 138.771 20.576C139.133 20.7467 139.571 20.832 140.083 20.832C140.68 20.832 141.181 20.7147 141.587 20.48C141.992 20.2453 142.195 19.8933 142.195 19.424C142.195 19.0827 142.099 18.8053 141.907 18.592C141.715 18.3573 141.32 18.1333 140.723 17.92C140.147 17.7067 139.272 17.4933 138.099 17.28C136.989 17.024 136.019 16.6933 135.187 16.288C134.355 15.8613 133.715 15.3173 133.267 14.656C132.819 13.9733 132.595 13.152 132.595 12.192C132.595 11.3387 132.872 10.5173 133.427 9.728C133.981 8.93867 134.792 8.29867 135.859 7.808C136.925 7.296 138.237 7.04 139.795 7.04C141.032 7.04 142.099 7.18933 142.995 7.488C143.912 7.76533 144.68 8.128 145.299 8.576C145.939 9.024 146.419 9.48267 146.739 9.952C147.059 10.4213 147.229 10.848 147.251 11.232C147.272 11.4453 147.208 11.6373 147.059 11.808C146.909 11.9573 146.739 12.032 146.547 12.032H143.219C143.133 12.032 143.048 12.0213 142.963 12C142.877 11.9573 142.803 11.9147 142.739 11.872C142.483 11.744 142.227 11.5733 141.971 11.36C141.715 11.1467 141.416 10.9547 141.075 10.784C140.733 10.6133 140.307 10.528 139.795 10.528C139.219 10.528 138.771 10.656 138.451 10.912C138.131 11.168 137.971 11.4987 137.971 11.904C137.971 12.1813 138.056 12.4373 138.227 12.672C138.419 12.9067 138.792 13.12 139.347 13.312C139.923 13.504 140.808 13.7173 142.003 13.952C143.475 14.1867 144.648 14.5707 145.523 15.104C146.397 15.616 147.016 16.224 147.379 16.928C147.741 17.6107 147.923 18.336 147.923 19.104C147.923 20.128 147.613 21.0347 146.995 21.824C146.397 22.6133 145.501 23.232 144.307 23.68C143.112 24.1067 141.661 24.32 139.955 24.32Z" fill="white"/>
    <path d="M151.434 24C151.2 24 151.008 23.9253 150.858 23.776C150.709 23.6267 150.634 23.4347 150.634 23.2V19.136C150.634 18.9227 150.709 18.7413 150.858 18.592C151.008 18.4213 151.2 18.336 151.434 18.336H155.466C155.701 18.336 155.893 18.4213 156.042 18.592C156.213 18.7413 156.298 18.9227 156.298 19.136V23.2C156.298 23.4347 156.213 23.6267 156.042 23.776C155.893 23.9253 155.701 24 155.466 24H151.434Z" fill="#3B82F6"/>

</svg>

<svg xmlns="http://www.w3.org/2000/svg" width="158" height="25" fill="none"><g clip-path="url(#a)"><path fill="#000" d="M4.576 24A.852.852 0 0 1 4 23.776a.78.78 0 0 1-.224-.576V11.552H1.344a.78.78 0 0 1-.576-.224.78.78 0 0 1-.224-.576V8.16a.78.78 0 0 1 .224-.576.78.78 0 0 1 .576-.224h2.432V6.336c0-1.45.277-2.613.832-3.488.576-.896 1.387-1.536 2.432-1.92C8.085.523 9.333.32 10.784.32h2.496a.74.74 0 0 1 .544.224.73.73 0 0 1 .256.576v2.592a.73.73 0 0 1-.256.576.74.74 0 0 1-.544.224h-2.24c-.725 0-1.237.17-1.536.512-.277.341-.416.832-.416 1.472v.864h3.872a.74.74 0 0 1 .544.224.73.73 0 0 1 .256.576v2.592a.73.73 0 0 1-.256.576.74.74 0 0 1-.544.224H9.088V23.2a.78.78 0 0 1-.224.576.78.78 0 0 1-.576.224H4.576Zm16.21.32c-1.152 0-2.186-.213-3.104-.64-.896-.448-1.61-1.045-2.144-1.792a4.243 4.243 0 0 1-.8-2.528c0-1.515.619-2.71 1.856-3.584 1.238-.896 2.88-1.504 4.928-1.824l4-.608v-.448c0-.768-.16-1.355-.48-1.76-.32-.405-.906-.608-1.76-.608-.597 0-1.088.117-1.472.352-.362.235-.65.555-.864.96a.92.92 0 0 1-.8.416h-3.584c-.234 0-.416-.064-.544-.192a.647.647 0 0 1-.16-.512c0-.384.139-.821.416-1.312.299-.512.747-1.013 1.344-1.504.598-.49 1.366-.896 2.304-1.216.939-.32 2.07-.48 3.392-.48 1.387 0 2.57.16 3.552.48.982.32 1.77.768 2.368 1.344a5.35 5.35 0 0 1 1.376 2.048c.299.768.448 1.621.448 2.56V23.2a.73.73 0 0 1-.256.576.74.74 0 0 1-.544.224h-3.712a.78.78 0 0 1-.576-.224.78.78 0 0 1-.224-.576v-1.12c-.277.405-.65.779-1.12 1.12a5.483 5.483 0 0 1-1.664.8c-.618.213-1.344.32-2.176.32Zm1.504-3.648c.619 0 1.174-.128 1.664-.384a2.799 2.799 0 0 0 1.184-1.248c.299-.576.448-1.29.448-2.144v-.448l-2.72.48c-1.002.17-1.738.437-2.208.8-.448.341-.672.747-.672 1.216 0 .363.107.672.32.928.214.256.49.459.832.608.342.128.726.192 1.152.192Zm22.555 3.648c-1.194 0-2.197-.203-3.008-.608-.79-.405-1.44-.917-1.952-1.536V23.2a.73.73 0 0 1-.256.576.74.74 0 0 1-.544.224H35.47a.78.78 0 0 1-.576-.224.78.78 0 0 1-.224-.576V2.08a.78.78 0 0 1 .224-.576.78.78 0 0 1 .576-.224h3.904a.78.78 0 0 1 .576.224.78.78 0 0 1 .224.576v6.848c.512-.555 1.152-1.003 1.92-1.344.79-.363 1.707-.544 2.752-.544 1.067 0 2.006.181 2.816.544a5.553 5.553 0 0 1 2.112 1.504c.576.661 1.024 1.45 1.344 2.368.32.917.502 1.952.544 3.104.022.405.032.779.032 1.12 0 .32-.01.693-.032 1.12-.042 1.195-.234 2.261-.576 3.2-.32.917-.768 1.707-1.344 2.368a5.777 5.777 0 0 1-2.08 1.472c-.81.32-1.75.48-2.816.48Zm-1.728-4.288c.726 0 1.29-.15 1.696-.448.406-.299.694-.704.864-1.216.192-.512.31-1.077.352-1.696.043-.661.043-1.323 0-1.984a5.983 5.983 0 0 0-.352-1.696 2.414 2.414 0 0 0-.864-1.216c-.405-.299-.97-.448-1.696-.448-.661 0-1.205.15-1.632.448-.426.277-.746.65-.96 1.12-.213.448-.33.939-.352 1.472a22.464 22.464 0 0 0 0 2.4c.022.576.128 1.11.32 1.6s.502.896.928 1.216c.427.299.992.448 1.696.448ZM59.028 24c-.32 0-.555-.075-.704-.224a1.548 1.548 0 0 1-.352-.576L53.364 8.384a.855.855 0 0 1-.064-.32c0-.192.075-.352.224-.48.15-.15.32-.224.512-.224h3.296c.277 0 .49.075.64.224.17.15.277.299.32.448l2.688 9.152 2.88-9.12c.043-.15.139-.299.288-.448.17-.17.405-.256.704-.256h2.112c.299 0 .523.085.672.256.17.15.277.299.32.448l2.88 9.12 2.688-9.152c.043-.15.139-.299.288-.448.17-.15.395-.224.672-.224h3.296c.192 0 .352.075.48.224.15.128.224.288.224.48 0 .107-.01.213-.032.32L73.844 23.2a1.145 1.145 0 0 1-.352.576c-.15.15-.384.224-.704.224h-2.88c-.299 0-.533-.075-.704-.224a1.145 1.145 0 0 1-.352-.576l-2.944-8.768-2.944 8.768a1.145 1.145 0 0 1-.352.576c-.17.15-.405.224-.704.224h-2.88Zm29.545.32c-1.792 0-3.307-.288-4.544-.864-1.216-.576-2.155-1.397-2.816-2.464-.64-1.088-1.003-2.379-1.088-3.872a29.14 29.14 0 0 1-.032-1.44c0-.555.01-1.035.031-1.44.086-1.515.47-2.805 1.153-3.872.682-1.067 1.632-1.888 2.847-2.464 1.238-.576 2.72-.864 4.449-.864 1.749 0 3.232.288 4.448.864 1.237.576 2.197 1.397 2.88 2.464.682 1.067 1.066 2.357 1.151 3.872.022.405.032.885.032 1.44 0 .533-.01 1.013-.032 1.44-.085 1.493-.458 2.784-1.12 3.872-.64 1.067-1.578 1.888-2.816 2.464-1.216.576-2.73.864-4.543.864Zm0-3.904c.96 0 1.653-.288 2.08-.864.447-.576.703-1.44.767-2.592.022-.32.032-.747.032-1.28s-.01-.96-.031-1.28c-.065-1.13-.32-1.984-.769-2.56-.426-.597-1.12-.896-2.08-.896-.938 0-1.632.299-2.08.896-.448.576-.693 1.43-.736 2.56-.02.32-.031.747-.031 1.28s.01.96.032 1.28c.042 1.152.287 2.016.736 2.592.448.576 1.14.864 2.08.864ZM101.032 24a.779.779 0 0 1-.576-.224.777.777 0 0 1-.224-.576V8.16c0-.213.074-.395.224-.544a.73.73 0 0 1 .576-.256h3.68c.234 0 .426.085.576.256.149.15.224.33.224.544v1.28a6.016 6.016 0 0 1 2.048-1.536c.81-.363 1.717-.544 2.72-.544h1.408c.213 0 .394.075.544.224.17.15.256.341.256.576v3.296a.799.799 0 0 1-.256.576.742.742 0 0 1-.544.224h-3.104c-.875 0-1.558.245-2.048.736-.47.47-.704 1.141-.704 2.016V23.2a.732.732 0 0 1-.256.576A.782.782 0 0 1 105 24h-3.968Zm14.531 0a.779.779 0 0 1-.576-.224.78.78 0 0 1-.224-.576V2.08a.78.78 0 0 1 .224-.576.779.779 0 0 1 .576-.224h3.712a.74.74 0 0 1 .544.224.73.73 0 0 1 .256.576V12.8l4.448-4.896c.128-.15.267-.277.416-.384.149-.107.363-.16.64-.16h4.288c.192 0 .352.075.48.224a.607.607 0 0 1 .224.48.78.78 0 0 1-.064.288.587.587 0 0 1-.192.256l-5.76 6.208 6.56 7.968c.171.17.256.341.256.512a.706.706 0 0 1-.224.512.692.692 0 0 1-.512.192h-4.384c-.32 0-.555-.053-.704-.16a7.5 7.5 0 0 1-.416-.384l-5.056-6.08V23.2a.73.73 0 0 1-.256.576.74.74 0 0 1-.544.224h-3.712Zm24.392.32c-1.387 0-2.571-.15-3.552-.448-.96-.32-1.75-.704-2.368-1.152-.598-.448-1.046-.907-1.344-1.376-.299-.49-.459-.907-.48-1.248a.643.643 0 0 1 .224-.576c.17-.17.352-.256.544-.256h3.648c.064 0 .117.01.16.032.042.021.106.064.192.128.277.15.554.341.832.576.277.213.597.405.96.576.362.17.8.256 1.312.256.597 0 1.098-.117 1.504-.352.405-.235.608-.587.608-1.056 0-.341-.096-.619-.288-.832-.192-.235-.587-.459-1.184-.672-.576-.213-1.451-.427-2.624-.64-1.11-.256-2.08-.587-2.912-.992-.832-.427-1.472-.97-1.92-1.632-.448-.683-.672-1.504-.672-2.464 0-.853.277-1.675.832-2.464.554-.79 1.365-1.43 2.432-1.92 1.066-.512 2.378-.768 3.936-.768 1.237 0 2.304.15 3.2.448.917.277 1.685.64 2.304 1.088.64.448 1.12.907 1.44 1.376.32.47.49.896.512 1.28a.736.736 0 0 1-.192.576.706.706 0 0 1-.512.224h-3.328c-.086 0-.171-.01-.256-.032a2.028 2.028 0 0 1-.224-.128 4.009 4.009 0 0 1-.768-.512 4.634 4.634 0 0 0-.896-.576c-.342-.17-.768-.256-1.28-.256-.576 0-1.024.128-1.344.384-.32.256-.48.587-.48.992 0 .277.085.533.256.768.192.235.565.448 1.12.64.576.192 1.461.405 2.656.64 1.472.235 2.645.619 3.52 1.152.874.512 1.493 1.12 1.856 1.824a4.58 4.58 0 0 1 .544 2.176c0 1.024-.31 1.93-.928 2.72-.598.79-1.494 1.408-2.688 1.856-1.195.427-2.646.64-4.352.64Z"/><path fill="#3B82F6" d="M151.434 24a.782.782 0 0 1-.576-.224.78.78 0 0 1-.224-.576v-4.064c0-.213.075-.395.224-.544a.732.732 0 0 1 .576-.256h4.032a.73.73 0 0 1 .576.256c.171.15.256.33.256.544V23.2a.73.73 0 0 1-.256.576.779.779 0 0 1-.576.224h-4.032Z"/></g><defs><clipPath id="a"><path fill="#fff" d="M0 0h158v25H0z"/></clipPath></defs></svg>
